X: 31549
T: Padraig O'Keefe's
R: slide
M: 12/8
K: Gmajor
c|dcd BAB G2D G2B|A2F A2A B2G B2c|
dcd BAB G2D G2F|EFE DEF G3 G2:|
B|AGF A3 BAG B2d|cBA c2A BAG B2c|
dcd BAB G2D G2F|EFE DEF G3 G2:|

